styles/6/Numix/64/places/purple-folder-move.svg

<?xml version="1.0" encoding="UTF-8" standalone="no"?>
<svg
   xmlns:dc="http://purl.org/dc/elements/1.1/"
   xmlns:cc="http://creativecommons.org/ns#"
   xmlns:rdf="http://www.w3.org/1999/02/22-rdf-syntax-ns#"
   xmlns:svg="http://www.w3.org/2000/svg"
   xmlns="http://www.w3.org/2000/svg"
   xmlns:sodipodi="http://sodipodi.sourceforge.net/DTD/sodipodi-0.dtd"
   xmlns:inkscape="http://www.inkscape.org/namespaces/inkscape"
   viewBox="0 0 64 64"
   id="svg2"
   version="1.1"
   inkscape:version="0.91 r13725"
   sodipodi:docname="blue-folder-move.svg">
  <metadata
     id="metadata36">
    <rdf:RDF>
      <cc:Work
         rdf:about="">
        <dc:format>image/svg+xml</dc:format>
        <dc:type
           rdf:resource="http://purl.org/dc/dcmitype/StillImage" />
      </cc:Work>
    </rdf:RDF>
  </metadata>
  <defs
     id="defs34" />
  <sodipodi:namedview
     pagecolor="#ffffff"
     bordercolor="#666666"
     borderopacity="1"
     objecttolerance="10"
     gridtolerance="10"
     guidetolerance="10"
     inkscape:pageopacity="0"
     inkscape:pageshadow="2"
     inkscape:window-width="722"
     inkscape:window-height="480"
     id="namedview32"
     showgrid="false"
     inkscape:zoom="3.6875"
     inkscape:cx="32"
     inkscape:cy="32"
     inkscape:window-x="10"
     inkscape:window-y="34"
     inkscape:window-maximized="0"
     inkscape:current-layer="svg2" />
  <path
     d="m 6,11.5278 0,21.412 32,0 0,-10.706 -1.524,-9.177 -11.976,-0.059 -1.5,-3 -15.476,0 C 6.762,9.9978 6,10.7628 6,11.5278 Z"
     style="fill:#512da8;fill-opacity:1;stroke:none"
     id="path8"
     inkscape:connector-curvature="0" />
  <rect
     width="15.786"
     height="5.941"
     x="8.5"
     y="13.997786"
     style="fill:#fffdf0;fill-opacity:1;stroke:none"
     id="rect10" />
  <path
     d="M 7.531,9.9978 C 6.769,9.9978 6,10.7638 6,11.5288 l 0,1 c 0,-0.765 0.769,-1.531 1.531,-1.531 l 14.969,0 1.5,3 12.469,0.062 1.531,9.172 0,-1 -1.531,-9.172 -11.969,-0.062 -1.5,-3 z"
     style="opacity:0.01499999;fill:#000000;fill-opacity:1;stroke:none"
     id="path12"
     inkscape:connector-curvature="0" />
  <path
     d="m 38,14.5878 0,21.412 -32,0 0,-20 15,0 1.5,-3 13.976,0.059 c 0.762,0 1.524,0.765 1.524,1.53 z"
     style="fill:#7e57c2;fill-opacity:1;stroke:none"
     id="path14"
     inkscape:connector-curvature="0" />
  <path
     d="m 6,34.9978 0,1 32,0 0,-1 z"
     style="opacity:0.075;fill:#000000;fill-opacity:1;stroke:none"
     id="path16"
     inkscape:connector-curvature="0" />
  <path
     d="m 22.5,12.9978 -1.5,3 -15,0 0,1 15.5,0 1.5,-3 13.469,0.062 c 0.762,0 1.531,0.767 1.531,1.531 l 0,-1 c 0,-0.765 -0.769,-1.531 -1.531,-1.531 z"
     style="opacity:0.01499999;fill:#000000;fill-opacity:1;stroke:none"
     id="path18"
     inkscape:connector-curvature="0" />
  <path
     style="fill:#ffffff;fill-opacity:1;stroke:none;opacity:0.5"
     d="M 7.5234375 9.9980469 C 7.4301315 9.9980469 7.3380008 10.009714 7.2460938 10.03125 C 6.6812478 10.163606 6.1695572 10.675481 6.0351562 11.242188 C 6.0350144 11.242777 6.0352973 11.243551 6.0351562 11.244141 C 6.0131223 11.337656 6 11.432364 6 11.527344 C 5.9999989 11.527989 6 11.528652 6 11.529297 L 6 12.529297 L 6 15.998047 L 6 16 L 6 16.998047 L 6 32.939453 L 6 34.998047 L 6 35.998047 L 6 36 L 38 36 L 38 35.998047 L 38 34.998047 L 38 32.939453 L 38 23.232422 L 38 22.234375 L 38 22.232422 L 38 15.589844 L 38 14.589844 C 38 14.589844 38 14.587891 38 14.587891 C 38 14.492911 37.986878 14.398203 37.964844 14.304688 C 37.964844 14.304688 37.964844 14.302734 37.964844 14.302734 C 37.808574 13.643818 37.143313 13.058594 36.476562 13.058594 L 36.476562 13.056641 L 24.5 12.998047 L 23 9.9980469 L 7.5234375 9.9980469 z "
     id="path4179" />
  <path
     inkscape:connector-curvature="0"
     id="path20"
     style="fill:#512da8;fill-opacity:1;stroke:none"
     d="m 26,29.5278 0,21.412 32,0 0,-10.706 -1.524,-9.177 -11.976,-0.059 -1.5,-3 -15.476,0 c -0.762,0 -1.524,0.765 -1.524,1.53 z" />
  <rect
     id="rect22"
     style="fill:#fffdf0;fill-opacity:1;stroke:none"
     y="31.997786"
     x="28.5"
     height="5.941"
     width="15.786" />
  <path
     inkscape:connector-curvature="0"
     id="path24"
     style="opacity:0.02999998;fill:#000000;fill-opacity:1;stroke:none"
     d="m 27.531,27.9978 c -0.762,0 -1.531,0.766 -1.531,1.531 l 0,1 c 0,-0.765 0.769,-1.531 1.531,-1.531 l 14.969,0 1.5,3 12.469,0.062 1.531,9.172 0,-1 -1.531,-9.172 -11.969,-0.062 -1.5,-3 z" />
  <path
     inkscape:connector-curvature="0"
     id="path26"
     style="fill:#7e57c2;fill-opacity:1;stroke:none"
     d="m 58,32.5878 0,21.412 -32,0 0,-20 15,0 1.5,-3 13.976,0.059 c 0.762,0 1.524,0.765 1.524,1.529 z" />
  <path
     inkscape:connector-curvature="0"
     id="path28"
     style="opacity:0.15;fill:#000000;fill-opacity:1;stroke:none"
     d="m 26,52.9978 0,1 32,0 0,-1 z" />
  <path
     inkscape:connector-curvature="0"
     id="path30"
     style="opacity:0.02999998;fill:#000000;fill-opacity:1;stroke:none"
     d="m 42.5,30.9978 -1.5,3 -15,0 0,1 15.5,0 1.5,-3 13.469,0.062 c 0.762,0 1.531,0.767 1.531,1.531 l 0,-1 c 0,-0.765 -0.769,-1.531 -1.531,-1.531 z" />
</svg>

<svg viewBox="0 0 64 64" xmlns="http://www.w3.org/2000/svg">
 <path style="fill:#512da8;fill-opacity:1;stroke:none" d="m 6 11.528 0 21.412 32 0 0 -10.706 -1.524 -9.177 -11.976 -0.059 -1.5 -3 -15.476 0 c -0.762 0 -1.524 0.765 -1.524 1.53 z"/>
 <rect height="5.941" width="15.786" style="fill:#fffdf0;fill-opacity:1;stroke:none" y="13.998" x="8.5"/>
 <path style="fill:#000;opacity:0.015;fill-opacity:1;stroke:none" d="M 7.531,9.9978 C 6.769,9.9978 6,10.7638 6,11.5288 l 0,1 c 0,-0.765 0.769,-1.531 1.531,-1.531 l 14.969,0 1.5,3 12.469,0.062 1.531,9.172 0,-1 -1.531,-9.172 -11.969,-0.062 -1.5,-3 z"/>
 <path style="fill:#7e57c2;fill-opacity:1;stroke:none" d="m 38 14.588 0 21.412 -32 0 0 -20 15 0 1.5 -3 13.976 0.059 c 0.762 0 1.524 0.765 1.524 1.53 z"/>
 <path style="fill:#000;opacity:0.075;fill-opacity:1;stroke:none" d="m 6 34.998 0 1 32 0 0 -1 z"/>
 <path style="fill:#000;opacity:0.015;fill-opacity:1;stroke:none" d="m 22.5 12.998 -1.5 3 -15 0 0 1 15.5 0 1.5 -3 13.469 0.062 c 0.762 0 1.531 0.767 1.531 1.531 l 0 -1 c 0 -0.765 -0.769 -1.531 -1.531 -1.531 z"/>
 <path style="fill:#fff;opacity:0.5;fill-opacity:1;stroke:none" d="m 7.523 9.998 c -0.093 0 -0.185 0.012 -0.277 0.033 c -0.565 0.132 -1.077 0.644 -1.211 1.211 c 0 0.001 0 0.001 0 0.002 c -0.022 0.094 -0.035 0.188 -0.035 0.283 c 0 0.001 0 0.001 0 0.002 l 0 1 l 0 3.469 l 0 0.002 l 0 0.998 l 0 15.941 l 0 2.059 l 0 1 l 0 0.002 l 32 0 l 0 -0.002 l 0 -1 l 0 -2.059 l 0 -9.707 l 0 -0.998 l 0 -0.002 l 0 -6.643 l 0 -1 c 0 0 0 -0.002 0 -0.002 c 0 -0.095 -0.013 -0.19 -0.035 -0.283 c 0 0 0 -0.002 0 -0.002 c -0.156 -0.659 -0.822 -1.244 -1.488 -1.244 l 0 -0.002 l -11.977 -0.059 l -1.5 -3 l -15.477 0 z"/>
 <path style="fill:#512da8;fill-opacity:1;stroke:none" d="m 26 29.528 0 21.412 32 0 0 -10.706 -1.524 -9.177 -11.976 -0.059 -1.5 -3 -15.476 0 c -0.762 0 -1.524 0.765 -1.524 1.53 z"/>
 <rect height="5.941" width="15.786" style="fill:#fffdf0;fill-opacity:1;stroke:none" y="31.998" x="28.5"/>
 <path style="fill:#000;opacity:0.03;fill-opacity:1;stroke:none" d="m 27.531 27.998 c -0.762 0 -1.531 0.766 -1.531 1.531 l 0 1 c 0 -0.765 0.769 -1.531 1.531 -1.531 l 14.969 0 1.5 3 12.469 0.062 1.531 9.172 0 -1 -1.531 -9.172 -11.969 -0.062 -1.5 -3 z"/>
 <path style="fill:#7e57c2;fill-opacity:1;stroke:none" d="m 58 32.588 0 21.412 -32 0 0 -20 15 0 1.5 -3 13.976 0.059 c 0.762 0 1.524 0.765 1.524 1.529 z"/>
 <path style="fill:#000;opacity:0.15;fill-opacity:1;stroke:none" d="m 26 52.998 0 1 32 0 0 -1 z"/>
 <path style="fill:#000;opacity:0.03;fill-opacity:1;stroke:none" d="m 42.5 30.998 -1.5 3 -15 0 0 1 15.5 0 1.5 -3 13.469 0.062 c 0.762 0 1.531 0.767 1.531 1.531 l 0 -1 c 0 -0.765 -0.769 -1.531 -1.531 -1.531 z"/>
</svg>
